src/22/actions/snap-grid-guide-intersections.svg

<svg xmlns="http://www.w3.org/2000/svg" viewBox="0 0 22 22">
  <defs id="defs3051">
    <style type="text/css" id="current-color-scheme">
      .ColorScheme-Text {
        color:#5d656b;
      }
      .ColorScheme-Highlight {
        color:#3daee9;
      }
      </style>
  </defs>
 <path 
     style="fill:currentColor;fill-opacity:1;stroke:none" 
     d="M 10.5 3 L 10.5 12 L 11.5 12 L 11.5 3 L 10.5 3 z M 7.5 4 L 7.5 8 L 9.5 6 L 7.5 4 z M 14.5 4 L 12.5 6 L 14.5 8 L 14.5 4 z M 18.466797 7.2519531 L 18.460938 7.2539062 L 18.460938 7.2558594 L 18.466797 7.2519531 z M 18.460938 7.2558594 L 11.568359 12 L 12 12 L 12 12.919922 L 19 8.1074219 L 18.460938 7.2558594 z M 10 13.080078 L 3.3007812 17.691406 L 3.8828125 18.5 L 10.427734 14 L 10 14 L 10 13.080078 z M 3.3007812 17.691406 L 3.2988281 17.6875 L 3.2988281 17.693359 L 3.3007812 17.691406 z M 10.5 14 L 10.5 19 L 11.5 19 L 11.5 14 L 10.5 14 z "
     class="ColorScheme-Text"
     />
 <path 
     style="fill:currentColor;fill-opacity:1;stroke:none" 
     d="M 9 11 L 9 15 L 13 15 L 13 11 L 9 11 z M 10 12 L 12 12 L 12 14 L 10 14 L 10 12 z "
     class="ColorScheme-Highlight"
     />
</svg>

<svg xmlns="http://www.w3.org/2000/svg" viewBox="0 0 22 22"><path d="M10.5 3v9h1V3h-1zm-3 1v4l2-2-2-2zm7 0l-2 2 2 2V4zm3.967 3.252l-.006.002v.002l.006-.004zm-.006.004L11.568 12H12v.92l7-4.813-.54-.851zM10 13.08l-6.7 4.611.583.809 6.545-4.5H10v-.92zm-6.7 4.611l-.001-.003v.005l.002-.002zM10.5 14v5h1v-5h-1z" fill="currentColor" color="#5d656b"/><path d="M9 11v4h4v-4H9zm1 1h2v2h-2v-2z" fill="currentColor" color="#3daee9"/></svg>
